src/browser/themes/shared/zen-icons/common/selectable/coins.svg

#filter dumbComments emptyLines substitution
# This Source Code Form is subject to the terms of the Mozilla Public
# License, v. 2.0. If a copy of the MPL was not distributed with this
# file, You can obtain one at http://mozilla.org/MPL/2.0/.
<svg xmlns="http://www.w3.org/2000/svg" fill="context-fill" fill-opacity="context-fill-opacity" viewBox="0 0 512 512"><path d="M256 428c-52.35 0-111.39-11.61-157.93-31-17.07-7.19-31.69-18.82-43.64-28a4 4 0 00-6.43 3.18v12.58c0 28.07 23.49 53.22 66.14 70.82C152.29 471.33 202.67 480 256 480s103.7-8.67 141.86-24.42C440.51 438 464 412.83 464 384.76v-12.58a4 4 0 00-6.43-3.18c-11.95 9.17-26.57 20.81-43.65 28-46.54 19.39-105.57 31-157.92 31zM464 126.51c-.81-27.65-24.18-52.4-66-69.85C359.74 40.76 309.34 32 256 32s-103.74 8.76-141.91 24.66c-41.78 17.41-65.15 42.11-66 69.69L48 144c0 6.41 5.2 16.48 14.63 24.73 11.13 9.73 27.65 19.33 47.78 27.73C153.24 214.36 207.67 225 256 225s102.76-10.68 145.59-28.58c20.13-8.4 36.65-18 47.78-27.73C458.8 160.49 464 150.42 464 144z"/><path d="M413.92 226c-46.53 19.43-105.57 31-157.92 31s-111.39-11.57-157.93-31c-17.07-7.15-31.69-18.79-43.64-28a4 4 0 00-6.43 3.22V232c0 6.41 5.2 14.48 14.63 22.73 11.13 9.74 27.65 19.33 47.78 27.74C153.24 300.34 207.67 311 256 311s102.76-10.68 145.59-28.57c20.13-8.41 36.65-18 47.78-27.74C458.8 246.47 464 238.41 464 232v-30.78a4 4 0 00-6.43-3.18c-11.95 9.17-26.57 20.81-43.65 27.96z"/><path d="M413.92 312c-46.54 19.41-105.57 31-157.92 31s-111.39-11.59-157.93-31c-17.07-7.17-31.69-18.81-43.64-28a4 4 0 00-6.43 3.2V317c0 6.41 5.2 14.47 14.62 22.71 11.13 9.74 27.66 19.33 47.79 27.74C153.24 385.32 207.66 396 256 396s102.76-10.68 145.59-28.57c20.13-8.41 36.65-18 47.78-27.74C458.8 331.44 464 323.37 464 317v-29.8a4 4 0 00-6.43-3.18c-11.95 9.17-26.57 20.81-43.65 27.98z"/></svg>

#filter dumbComments emptyLines substitution
# This Source Code Form is subject to the terms of the Mozilla Public
# License, v. 2.0. If a copy of the MPL was not distributed with this
# file, You can obtain one at http://mozilla.org/MPL/2.0/.
<svg fill="context-fill" fill-opacity="context-fill-opacity" viewBox="0 0 512 512" id="svg3" xmlns="http://www.w3.org/2000/svg" xmlns:svg="http://www.w3.org/2000/svg"><path id="path3" d="M 413.92,312 C 367.38,331.41 308.35,343 256,343 203.65,343 144.61,331.41 98.07,312 81,304.83 66.38,293.19 54.43,284 A 4,4 0 0 0 48,287.2 V 317 c 0,6.41 5.2,14.47 14.62,22.71 11.13,9.74 27.66,19.33 47.79,27.74 42.83,17.87 97.25,28.55 145.59,28.55 48.34,0 102.76,-10.68 145.59,-28.57 20.13,-8.41 36.65,-18 47.78,-27.74 C 458.8,331.44 464,323.37 464,317 v -29.8 a 4,4 0 0 0 -6.43,-3.18 C 445.62,293.19 431,304.83 413.92,312 Z m 0,-86 C 367.39,245.43 308.35,257 256,257 203.65,257 144.61,245.43 98.07,226 81,218.85 66.38,207.21 54.43,198 A 4,4 0 0 0 48,201.22 V 232 c 0,6.41 5.2,14.48 14.63,22.73 11.13,9.74 27.65,19.33 47.78,27.74 42.83,17.87 97.26,28.53 145.59,28.53 48.33,0 102.76,-10.68 145.59,-28.57 20.13,-8.41 36.65,-18 47.78,-27.74 C 458.8,246.47 464,238.41 464,232 v -30.78 a 4,4 0 0 0 -6.43,-3.18 C 445.62,207.21 431,218.85 413.92,226 Z M 256,428 C 203.65,428 144.61,416.39 98.07,397 81,389.81 66.38,378.18 54.43,369 A 4,4 0 0 0 48,372.18 v 12.58 c 0,28.07 23.49,53.22 66.14,70.82 C 152.29,471.33 202.67,480 256,480 309.33,480 359.7,471.33 397.86,455.58 440.51,438 464,412.83 464,384.76 V 372.18 A 4,4 0 0 0 457.57,369 C 445.62,378.17 431,389.81 413.92,397 367.38,416.39 308.35,428 256,428 Z M 464,126.51 C 463.19,98.86 439.82,74.11 398,56.66 359.74,40.76 309.34,32 256,32 202.66,32 152.26,40.76 114.09,56.66 72.31,74.07 48.94,98.77 48.09,126.35 L 48,144 c 0,6.41 5.2,16.48 14.63,24.73 11.13,9.73 27.65,19.33 47.78,27.73 42.83,17.9 97.26,28.54 145.59,28.54 48.33,0 102.76,-10.68 145.59,-28.58 20.13,-8.4 36.65,-18 47.78,-27.73 C 458.8,160.49 464,150.42 464,144 Z"/></svg>
